X:4353
T:Montagnarde
O:england
C:Trad 2, 17
M:3/8
L:1/8
K:C
c/d/ee|c/d/ee|c/e/gf|e2d|\
c/d/ee|c/d/ee|c/e/gf|1 d2d:|2 d2G||
|:c2B|ABc|d>ef|edG|\
c2B|ABc|d>ed|1 c2G:|2 c3||


